X:372
T:Ballinamona Oro
O:england
B:Joyce, P. W.; "Old Irish Folk Music and Songs"
R:song air
H:  This air was familiarly known all over Munster, and was in constant
H:requisition for songs, often of a satiric and comic character.  Clinton
H:calls it "The Wedding of Ballinamona."  The choruses were always something
H:like this:
W:With my Ballinamona Oro, Ballinamona Oro,
W:Ballinamona Oro, the girl of sweet Cullen for me.
L:1/8
M:6/8
K:G
D|GAG =fef|gag =f2 d|gdd dcB|cBc A2 F|
GBd =fef|gag =f2 e/f/|gdd dcB|cBc A2 "Chorus"B/c/|
ded dBc|d3 B2 d/B/|cAG FGA/B/|c3 A2 B/c/|
dBG GBd|g3 d2 c|BGB cAF|(G3 G2)||


